X:1
T:Title
%%score 1 { 2 | 3 }
L:1/8
Q:1/4=105
M:4/4
K:Bb
V:1 treble nm="Grand Piano, Soprano"
V:2 bass nm="Choir Pad, Cleansing Blood (Aultman)"
V:3 bass 
V:1
 [DF]2 [DF]2- [DF][DB][Ec][GB] | [FA][EG] [DF]2 [DB]2 [Fd]2 | [FB]2 [Ec]2- [Ec][Ec] [DB]2 | %3
w: By~Daniel~Brink~Towner * * * * *|||
 [EA]2 [DB]6 | [DF]2 [DF]2- [DF][DB][Ec][GB] | [FA][EG] [DF]2 [DB]2 [Fd]2 | %6
w: |||
 [FB][FB] [Ec]2- [Ec][EF] [Fd]2 | [Ec]2 [DB]6 | F2 [Ec]6 | [Fd]2 [DB]6 | [DF]2 [EG]2 [EA]2 [DB]2 | %11
w: |||||
 [Gc]2 [^Fd]6 | [^FA]2 [GB]6 | [EG]2 [DF]6 | [FB]2 [Ec]2 [EF]2 [Fd]2- | [Fd][Ec] [DB]6- | %16
w: |||||
 [DB]2 z2 z4 |] %17
w: |
V:2
 B,2 B,2- B,B, B,2 | B,2 B,2 B,2 B,2 | B,2 A,2- A,A, B,2 | C2 B,6 | B,2 B,2- B,B, B,2 | %5
 B,2 B,2 B,2 B,2 | B,B, A,2- A,A, B,2 | A,2 B,6 | z2 z F, F,F, A,2 | z2 z F, F,F, B,2 | %10
 B,2 B,B, CCB,B, | G,G, A,6 | z4 B,B,B,B, | z2 z B, B,B, F,2 | B,2 A,2 C2 B,2- | B,A, F,6- | %16
 F,2 z2 z4 |] %17
V:3
 B,,2 B,,2- B,,B,, E,2 | E,2 B,,2 B,,2 B,,2 | D,2 F,2- F,F, F,2 | F,2 B,,6 | %4
 B,,2 B,,2- B,,B,, E,2 | E,2 B,,2 B,,2 B,,2 | D,D, F,2- F,F, F,2 | F,2 B,,6 | z2 z F,, A,,C, F,,2 | %9
 z2 z B,, .D,2 B,,2 | B,,2 E,E, C,C,G,G, | E,E, D,6 | z4 E,G, z E, | z2 z B,, D,F, B,,2 | %14
 D,2 F,2 F,2 F,2- | F,F, B,,6- | B,,2 z2 z4 |] %17

